X:1
T:[ID 2-24]
T:[ID 2-24]
T:Bezeichnung standardisiert: Menuett Menuet 5.
T:Urheber unbekannt Erstbeleg: 1767 (Datum in der schriftlichen Quelle) Datum in der hier transkribierten schriftlichen Quelle: 1792
C:Urheber unbekannt
C:Erstbeleg: 1767 (Datum in der schriftlichen Quelle)
C:Datum in der hier transkribierten schriftlichen Quelle: 1792
L:1/8
M:3/4
K:G
V:1 treble 
V:1
 e4 (3efg | e2 d4 | d2 g2 bg | d2 c2 B2 | A2 c'2 a2 | fgaf g2 | (ed)(dc)(cB) | B2 A4 :: A3 cBd | %9
 c2 A4 | B(A/B/) c(B/c/) dB | e2 d4 | d2 c'2 a2 | fgaf g2 | (3edc B2 A2 | A4 G2 :| %16

